X: 22223
T: La Cosa Mulligan
R: reel
M: 4/4
K: Dmajor
|:D3F EDFE|DEFD EA,A,A,|CEEE GBed|ceAc dBAF|
D3F EDFE|DEFD EFGB|Accc dBAG|1 FAEA D2A,/B,/C:|2 FAEA D3e||
|:fddc d2df|^deef e=dcB|A2cA BAcB|ABcA B/c/d eg|
fddc d2df|^deef e=dcB|ABce f/^g/a e=g|1 fddc d3e:|2 fddc d3B||
A2AA BAAG|FGAF GFED|E2EF GFEF|GBec dBAF|
D3F EDFE|DEFD EFGB|Accc dBAG|FAEA D2A,/B,/C||

